src/assets/svg/spring.svg

<?xml version="1.0" encoding="UTF-8"?>
<!-- Uploaded to: SVG Repo, www.svgrepo.com, Generator: SVG Repo Mixer Tools -->
<svg width="800px" height="800px" viewBox="0 -186.5 512 512" version="1.1" xmlns="http://www.w3.org/2000/svg" xmlns:xlink="http://www.w3.org/1999/xlink" preserveAspectRatio="xMidYMid">
    <g>
        <path d="M271.147309,34.6183438 C286.805503,34.6183438 302.179003,47.0025522 302.179003,69.3510661 L302.179003,69.6357605 C302.179003,91.8419272 286.94785,104.368483 271.147309,104.368483 C260.044225,104.368483 253.069211,98.8169411 248.371753,92.5536633 L248.371753,116.183302 C248.371753,120.371595 245.085554,123.738339 240.930408,123.86628 L240.685003,123.870052 C236.556934,123.870052 233.1406,120.453719 233.1406,116.325649 L233.1406,42.5897883 C232.998253,38.4617188 236.414586,35.0453855 240.542656,34.9030383 L240.685003,34.9030383 C244.873296,34.9030383 248.24004,38.1892376 248.367981,42.3443839 L248.371753,42.5897883 L248.371753,47.1448994 C253.353906,40.1698855 260.32892,34.6183438 271.147309,34.6183438 Z M473.849753,34.4759966 C484.496422,34.4759966 491.420759,39.8526976 496.38655,46.6715011 L496.625309,47.0025522 L496.625309,42.4474411 L496.629081,42.2020367 C496.754463,38.1299933 499.990391,34.8924866 504.061766,34.7646152 L504.312059,34.7606911 L504.454406,34.7606911 C508.642699,34.9003008 512.009443,38.189185 512.003092,42.3443829 L511.998809,42.5897883 L511.998809,89.2796772 C511.998809,100.525108 509.009517,108.923594 503.457975,114.475136 C497.479392,120.596066 488.084475,123.443011 475.984961,123.443011 C467.017086,123.443011 458.191559,121.450149 450.077767,117.464427 C447.515517,116.610344 445.80735,114.048094 445.80735,111.343497 C445.949698,107.784816 448.796642,105.080219 452.355323,105.080219 C453.351753,105.080219 454.205836,105.222566 455.05992,105.649608 C461.323198,109.208288 468.440559,110.916455 475.55792,110.916455 C488.511517,110.916455 495.913573,104.653177 496.625309,92.5536633 C491.92785,98.6745938 484.952836,104.226136 473.849753,104.226136 C458.207217,104.226136 443.122739,91.9488584 442.822613,70.1566916 L442.818059,69.4934133 L442.818059,69.2087188 C442.818059,46.860205 458.191559,34.4759966 473.849753,34.4759966 Z M413.067489,34.9030383 C428.156295,34.9030383 436.839475,45.0096911 436.839475,60.5255383 L436.839475,96.5393855 C436.981823,100.667455 433.707836,103.941441 429.579767,104.083788 L429.295073,104.083788 C425.167003,104.226136 421.75067,100.809802 421.608323,96.6817327 L421.608323,65.2229966 C421.608323,54.8316494 416.483823,48.8530661 407.231253,48.8530661 C398.405725,48.8530661 392.142448,55.1163438 392.142448,65.5076911 L392.142448,96.6817327 C392.142448,100.952149 388.726114,104.368483 384.455698,104.368483 C380.185281,104.368483 376.768948,100.952149 376.768948,96.6817327 L376.911295,42.7321355 C376.768948,38.6040661 380.185281,35.1877327 384.31335,35.0453855 L384.455698,35.0453855 C388.643991,35.0453855 392.010734,38.3315848 392.138676,42.4867311 L392.142448,42.7321355 L392.142448,45.8637744 C396.697559,38.7464133 404.669003,34.6183438 413.067489,34.9030383 Z M201.254823,34.7606911 C208.656878,34.9030383 215.774239,36.7535522 222.322211,40.1698855 C224.599767,41.3086633 226.023239,43.4438716 226.023239,46.0061216 C226.023239,49.422455 223.176295,52.2693994 219.759961,52.2693994 L219.617614,52.2693994 C218.621184,52.2693994 217.624753,51.984705 216.628323,51.5576633 C211.788517,48.8530661 206.52167,47.2872466 200.970128,47.0025522 C194.991545,47.0025522 191.575211,49.8494966 191.575211,53.5505244 L191.575211,53.8352188 C191.575211,58.8173716 198.83492,60.8102327 206.664017,63.3724827 C206.877538,63.4374673 207.091597,63.5031919 207.30607,63.5697165 L207.950606,63.7717499 C208.703723,64.0103953 209.460387,64.2595746 210.215269,64.5218586 L210.861749,64.7499427 C219.364723,67.7968846 227.446711,72.6064851 227.446711,82.8740522 L227.446711,83.1587466 C227.446711,97.2511216 216.485975,104.226136 202.678295,104.226136 C193.568073,104.083788 184.600198,101.379191 177.055795,96.2546911 C175.205281,95.1159133 174.066503,93.1230522 174.20885,90.9878438 C174.20885,87.5715105 176.913448,84.7245661 180.329781,84.7245661 L180.472128,84.7245661 C181.610906,84.7245661 182.749684,85.0092605 183.746114,85.5786494 C189.440003,89.5643716 196.130323,91.69958 202.962989,91.9842744 C209.510961,91.9842744 213.354336,89.13733 213.354336,84.7245661 L213.354336,84.4398716 C213.354336,79.1730244 206.236975,77.4648577 198.407878,75.044955 C197.589382,74.8077096 196.761988,74.562556 195.932865,74.305046 L195.310811,74.109527 C186.393254,71.2718886 177.482836,66.8777831 177.482836,55.4010383 L177.482836,55.1163438 C177.482836,42.4474411 188.016531,34.7606911 201.254823,34.7606911 Z M361.395448,35.0453855 C365.583741,35.0453855 368.950484,38.3315848 369.078426,42.4867311 L369.082198,42.7321355 L369.082198,96.6817327 C369.082198,100.952149 365.665864,104.226136 361.395448,104.226136 C357.125031,104.226136 353.851045,100.809802 353.851045,96.6817327 L353.851045,42.7321355 C353.708698,38.6040661 357.125031,35.1877327 361.2531,35.0453855 L361.395448,35.0453855 Z M347.730114,41.3086633 L347.730114,42.4474411 C347.730114,46.1484688 345.167864,49.2801077 341.609184,49.8494966 C330.648448,51.7000105 323.246392,61.2372744 323.246392,74.4755661 L323.246392,96.5393855 C323.246392,100.809802 319.830059,104.083788 315.559642,104.083788 C311.512515,104.083788 308.149487,100.936935 308.019159,96.923557 L308.015239,96.6810737 L308.015239,96.5393855 L308.157586,42.5897883 C308.015239,38.4617188 311.431573,35.0453855 315.559642,34.9030383 L315.701989,34.9030383 C319.890283,34.9030383 323.257026,38.1892376 323.384967,42.3443839 L323.388739,42.5897883 L323.388739,46.2908161 C324.100475,40.5969272 333.495392,34.9030383 340.185711,34.9030383 C344.029086,34.6183438 347.44542,37.4652883 347.730114,41.3086633 Z M267.730975,47.9989827 C257.339628,47.9989827 248.229406,56.6821633 248.229406,69.3510661 L248.229406,69.6357605 C248.229406,82.4470105 257.339628,90.9878438 267.730975,90.9878438 C278.122323,90.9878438 286.805503,82.8740522 286.805503,69.6357605 L286.805503,69.3510661 C286.805503,56.3974688 278.122323,47.9989827 267.730975,47.9989827 Z M477.408434,47.8566355 C467.124214,47.8566355 458.513122,56.0828496 458.336667,68.8095487 L458.333906,69.2087188 L458.333906,69.4934133 C458.333906,82.731705 466.874739,90.9878438 477.408434,90.9878438 C487.834641,90.9878438 496.866279,82.4809669 496.911479,69.8843001 L496.910003,69.4934133 L496.910003,69.2087188 C496.910003,56.5398161 487.799781,47.8566355 477.408434,47.8566355 Z M369.224545,16.2555522 L369.224545,16.5402466 L369.224545,16.5402466 C369.224545,20.8106633 365.808211,24.2269966 361.537795,24.2269966 C357.267378,24.2269966 353.851045,20.8106633 353.851045,16.5402466 C353.851045,12.3519534 357.137244,8.98520992 361.29239,8.85726871 L361.537795,8.85349662 C365.665864,8.7111494 369.082198,12.1274827 369.224545,16.2555522 Z" fill="#6DB33F">
</path>
        <g>
            <path d="M21.0432393,19.3871911 C48.3739059,-7.08939227 92.0745031,-6.37765616 118.551086,21.0953577 C121.540378,17.1096355 124.102628,12.6968716 125.953142,8.14176051 C134.636323,34.6183438 139.90317,56.8245105 137.910309,74.0485244 C136.913878,88.5679411 131.219989,102.517969 121.825073,113.621052 C97.3413504,142.659886 53.7831004,146.360913 24.744267,121.877191 L24.744267,121.877191 L24.186,121.381 L24.089478,121.31426 C24.0223298,121.266156 23.9558824,121.216554 23.8901837,121.165455 C23.6273888,120.961059 23.3885525,120.738694 23.1736746,120.501432 L23.096,120.412 L22.182017,119.599636 C21.3279337,118.867564 20.4738504,118.135493 19.7094084,117.31378 L19.3350726,116.895038 C-7.14151074,89.5643716 -6.28742741,45.8637744 21.0432393,19.3871911 Z M31.2922393,112.055233 C28.7299893,110.062372 25.0289615,110.347066 23.0361004,112.909316 C21.2987343,115.143072 21.2923703,118.24233 23.0170084,120.32074 L23.096,120.412 L24.186,121.381 L24.2929765,121.45408 C26.7590325,123.078018 30.0710081,122.761316 31.9897044,120.503976 L32.1463226,120.311372 C34.1391837,117.749122 33.712142,114.048094 31.2922393,112.055233 Z M125.241406,15.2591216 C118.124045,30.20558 100.472989,41.5933577 85.2418365,45.1520383 C79.3736449,46.5464601 73.8137438,46.897437 68.3879031,47.1729142 L66.7639985,47.2542603 C59.4729578,47.6188368 52.3944887,48.0222231 45.0999198,50.8459272 C14.9223087,62.3760522 15.4916976,98.2475522 32.0039754,106.361344 L32.0039754,106.361344 L33.0004059,106.930733 C33.0004059,106.930733 43.9272492,104.758144 55.2061796,101.825788 L56.216893,101.561196 C56.3854083,101.516771 56.5539318,101.472187 56.7224282,101.427447 L57.7328008,101.157184 C62.4437331,99.8876199 67.0783309,98.5037772 70.864767,97.1087744 C90.5086837,89.8490661 112.145461,71.9133161 119.262823,51.1306216 C115.561795,72.7673994 96.9143087,93.6924411 78.2668226,103.229705 C68.302517,108.354205 60.615767,109.492983 44.2458365,115.186872 C42.2529754,115.898608 40.6871559,116.610344 40.6871559,116.610344 C40.7809757,116.597403 40.8747954,116.58461 40.9685667,116.571963 L41.5302253,116.497848 L41.5302253,116.497848 L42.0883947,116.427263 C45.7001163,115.979928 48.9432948,115.756261 48.9432948,115.756261 C72.145892,114.617483 108.586781,122.304233 125.5261,99.6710244 C142.892461,76.6107744 133.21285,39.3158022 125.241406,15.2591216 Z" fill="#6DB33F">
</path>
            <path d="M31.2922393,112.055233 C33.712142,114.048094 34.1391837,117.749122 32.1463226,120.311372 C30.1534615,122.873622 26.4524337,123.158316 23.8901837,121.165455 C21.3279337,119.172594 21.0432393,115.471566 23.0361004,112.909316 C25.0289615,110.347066 28.7299893,110.062372 31.2922393,112.055233 Z M125.241406,15.2591216 C133.21285,39.3158022 142.892461,76.6107744 125.5261,99.6710244 C108.586781,122.304233 72.145892,114.617483 48.9432948,115.756261 C48.9432948,115.756261 44.8152254,116.040955 40.6871559,116.610344 C40.6871559,116.610344 42.2529754,115.898608 44.2458365,115.186872 C60.615767,109.492983 68.302517,108.354205 78.2668226,103.229705 C96.9143087,93.6924411 115.561795,72.7673994 119.262823,51.1306216 C112.145461,71.9133161 90.5086837,89.8490661 70.864767,97.1087744 C67.3487906,98.4041341 63.1014912,99.6898712 58.7408366,100.883423 L57.7328008,101.157184 C45.6189747,104.421778 33.0004059,106.930733 33.0004059,106.930733 L32.0039754,106.361344 C15.4916976,98.2475522 14.9223087,62.3760522 45.0999198,50.8459272 C58.3382115,45.7214272 70.864767,48.5683716 85.2418365,45.1520383 C100.472989,41.5933577 118.124045,30.20558 125.241406,15.2591216 Z" fill="#FFFFFF">
</path>
        </g>
    </g>
</svg>

<svg xmlns="http://www.w3.org/2000/svg" width="800" height="800" preserveAspectRatio="xMidYMid" viewBox="0 -186.5 512 512"><path fill="#6DB33F" d="M271.147 34.618c15.659 0 31.032 12.385 31.032 34.733v.285c0 22.206-15.231 34.732-31.032 34.732-11.103 0-18.078-5.551-22.775-11.814v23.63a7.653 7.653 0 0 1-7.442 7.682l-.245.004c-4.128 0-7.544-3.416-7.544-7.544V42.59c-.143-4.128 3.274-7.545 7.402-7.687h.142a7.653 7.653 0 0 1 7.683 7.441l.004.246v4.555c4.982-6.975 11.957-12.527 22.775-12.527m202.703-.142c10.646 0 17.57 5.377 22.537 12.196l.238.33v-4.555l.004-.245a7.652 7.652 0 0 1 7.433-7.437l.25-.004h.142c4.189.14 7.555 3.428 7.55 7.583l-.005.246v46.69c0 11.245-2.99 19.644-8.541 25.195-5.979 6.121-15.374 8.968-27.473 8.968-8.968 0-17.793-1.993-25.907-5.979-2.562-.854-4.27-3.416-4.27-6.12.142-3.56 2.989-6.264 6.547-6.264.997 0 1.85.143 2.705.57 6.263 3.558 13.38 5.266 20.498 5.266 12.954 0 20.356-6.263 21.067-18.362-4.697 6.12-11.672 11.672-22.775 11.672-15.643 0-30.727-12.277-31.027-34.07l-.005-.663v-.284c0-22.349 15.374-34.733 31.032-34.733m-60.783.427c15.09 0 23.772 10.107 23.772 25.623v36.013c.143 4.128-3.131 7.402-7.26 7.545h-.284c-4.128.142-7.544-3.274-7.687-7.402V65.223c0-10.391-5.124-16.37-14.377-16.37-8.825 0-15.089 6.263-15.089 16.655v31.174a7.655 7.655 0 0 1-7.686 7.686 7.655 7.655 0 0 1-7.687-7.686l.142-53.95c-.142-4.128 3.274-7.544 7.402-7.687h.143a7.653 7.653 0 0 1 7.683 7.442l.003.245v3.132c4.556-7.118 12.527-11.246 20.925-10.961m-211.812-.142c7.402.142 14.52 1.993 21.067 5.409 2.278 1.139 3.701 3.274 3.701 5.836 0 3.416-2.847 6.263-6.263 6.263h-.142c-.997 0-1.993-.284-2.99-.711-4.84-2.705-10.106-4.27-15.658-4.555-5.978 0-9.395 2.846-9.395 6.548v.284c0 4.982 7.26 6.975 15.089 9.537l.642.198.645.202c.753.238 1.51.488 2.264.75l.647.228c8.503 3.047 16.585 7.856 16.585 18.124v.285c0 14.092-10.961 21.067-24.769 21.067-9.11-.142-18.078-2.847-25.622-7.971-1.85-1.14-2.99-3.132-2.847-5.267 0-3.416 2.704-6.263 6.12-6.263h.143c1.139 0 2.278.284 3.274.854 5.694 3.985 12.384 6.12 19.217 6.405 6.548 0 10.391-2.847 10.391-7.26v-.284c0-5.267-7.117-6.975-14.946-9.395-.819-.237-1.646-.482-2.475-.74l-.622-.195c-8.918-2.838-17.828-7.232-17.828-18.709v-.285c0-12.669 10.534-20.355 23.772-20.355m160.14.284a7.653 7.653 0 0 1 7.683 7.442l.004.245v53.95c0 4.27-3.416 7.544-7.687 7.544-4.27 0-7.544-3.416-7.544-7.544v-53.95c-.142-4.128 3.274-7.544 7.402-7.687zM347.73 41.31v1.138c0 3.701-2.562 6.833-6.12 7.402-10.962 1.851-18.364 11.388-18.364 24.627V96.54c0 4.27-3.416 7.545-7.686 7.545-4.047 0-7.41-3.147-7.54-7.16l-.005-.243v-.142l.143-53.95c-.143-4.127 3.274-7.544 7.402-7.686h.142a7.653 7.653 0 0 1 7.683 7.441l.004.246v3.7c.711-5.693 10.106-11.387 16.797-11.387 3.843-.285 7.26 2.562 7.544 6.406M267.731 48c-10.391 0-19.502 8.683-19.502 21.352v.285c0 12.811 9.11 21.352 19.502 21.352 10.391 0 19.075-8.114 19.075-21.352v-.285c0-12.954-8.684-21.352-19.075-21.352m209.677-.142c-10.284 0-18.895 8.226-19.071 20.953l-.003.399v.284c0 13.239 8.54 21.495 19.074 21.495 10.427 0 19.458-8.507 19.503-21.104l-.001-.39v-.285c0-12.67-9.11-21.352-19.502-21.352M369.225 16.256v.284a7.655 7.655 0 0 1-7.687 7.687 7.655 7.655 0 0 1-7.687-7.687 7.653 7.653 0 0 1 7.441-7.683l.246-.004c4.128-.142 7.544 3.274 7.687 7.403M21.043 19.387c27.33-26.476 71.032-25.765 97.508 1.708 2.99-3.985 5.552-8.398 7.402-12.953 8.683 26.476 13.95 48.683 11.957 65.907-.996 14.519-6.69 28.469-16.085 39.572-24.484 29.039-68.042 32.74-97.08 8.256l-.559-.496-.097-.067a5.623 5.623 0 0 1-.916-.813l-.077-.089-.914-.812c-.854-.732-1.708-1.465-2.473-2.286l-.374-.419c-26.477-27.33-25.622-71.031 1.708-97.508m10.25 92.668c-2.563-1.993-6.264-1.708-8.257.854-1.737 2.234-1.744 5.333-.019 7.412l.079.091 1.09.969.107.073c2.466 1.624 5.778 1.307 7.697-.95l.156-.193c1.993-2.562 1.566-6.263-.854-8.256M125.24 15.26c-7.117 14.947-24.768 26.334-40 29.893-5.867 1.394-11.427 1.745-16.853 2.02l-1.624.082c-7.291.365-14.37.768-21.664 3.592-30.178 11.53-29.608 47.402-13.096 55.515l.996.57s10.927-2.173 22.206-5.105l1.01-.265.506-.134 1.01-.27c4.712-1.27 9.346-2.653 13.133-4.048 19.644-7.26 41.28-25.196 48.398-45.978-3.701 21.636-22.349 42.561-40.996 52.099-9.964 5.124-17.651 6.263-34.021 11.957a51.199 51.199 0 0 0-3.559 1.423l.282-.038.561-.074.558-.07c3.612-.448 6.855-.672 6.855-.672 23.203-1.139 59.644 6.548 76.583-16.085 17.366-23.06 7.687-60.355-.285-84.412"/><path fill="#FFF" d="M31.292 112.055c2.42 1.993 2.847 5.694.854 8.256-1.993 2.563-5.694 2.847-8.256.854-2.562-1.992-2.847-5.693-.854-8.256 1.993-2.562 5.694-2.847 8.256-.854m93.95-96.796c7.97 24.057 17.65 61.352.284 84.412-16.94 22.633-53.38 14.946-76.583 16.085 0 0-4.128.285-8.256.854 0 0 1.566-.711 3.559-1.423 16.37-5.694 24.057-6.833 34.02-11.957 18.648-9.538 37.296-30.463 40.997-52.1-7.118 20.783-28.754 38.72-48.398 45.979-3.516 1.295-7.764 2.58-12.124 3.774l-1.008.274C45.619 104.422 33 106.931 33 106.931l-.996-.57C15.492 98.248 14.922 62.376 45.1 50.846c13.238-5.125 25.765-2.278 40.142-5.694 15.231-3.559 32.882-14.946 40-29.893"/></svg>
